svg/regular/bx-move-vertical.svg

<svg xmlns="http://www.w3.org/2000/svg" width="24" height="24"><path d="m7 17 5 5 5-5h-4V7h4l-5-5-5 5h4v10z"/></svg>

<svg xmlns="http://www.w3.org/2000/svg" width="24" height="24" viewBox="0 0 24 24"><path d="M7 17L12 22 17 17 13 17 13 7 17 7 12 2 7 7 11 7 11 17z"/></svg>
